img/soc-icons/facebook.svg

<svg width="48" height="48" viewBox="0 0 48 48" fill="none" xmlns="http://www.w3.org/2000/svg">
<g clip-path="url(#clip0_5_60)">
<circle cx="24" cy="24" r="22" fill="#3B5998"/>
<path d="M24 -3.33786e-06C10.7452 -3.33786e-06 0 10.7471 0 24C0 37.2548 10.7452 47.998 24 47.998C37.2548 47.998 48 37.2548 48 24C48 10.7471 37.2538 -3.33786e-06 24 -3.33786e-06ZM30.3516 23.8996H26.1958C26.1958 30.5407 26.1958 38.7206 26.1958 38.7206H20.0362C20.0362 38.7206 20.0362 30.6245 20.0362 23.8996H17.1065V18.6669H20.0362V15.2762C20.0362 12.8494 21.1882 9.06103 26.2533 9.06103L30.8145 9.07858V14.1612C30.8145 14.1612 28.0408 14.1612 27.5028 14.1612C26.9619 14.1612 26.1968 14.4312 26.1968 15.5851V18.6679H30.8925L30.3516 23.8996Z" fill="white"/>
</g>
<defs>
<clipPath id="clip0_5_60">
<rect width="48" height="48" fill="white"/>
</clipPath>
</defs>
</svg>

<svg width="48" height="48" fill="none" xmlns="http://www.w3.org/2000/svg">
    <g clip-path="url(#a)">
        <circle cx="24" cy="24" r="22" fill="#3B5998"/>
        <path d="M24 0C10.745 0 0 10.747 0 24c0 13.255 10.745 23.998 24 23.998S48 37.255 48 24C48 10.747 37.254 0 24 0Zm6.352 23.9h-4.156v14.82h-6.16V23.9h-2.93v-5.233h2.93v-3.39c0-2.428 1.152-6.216 6.217-6.216l4.561.018v5.082h-3.311c-.541 0-1.306.27-1.306 1.424v3.083h4.695l-.54 5.232Z" fill="#fff"/>
    </g>
    <defs>
        <clipPath id="a">
            <path fill="#fff" d="M0 0h48v48H0z"/>
        </clipPath>
    </defs>
</svg>
